public/icons/php.svg

<?xml version="1.0" encoding="UTF-8" standalone="no" ?>
<!DOCTYPE svg PUBLIC "-//W3C//DTD SVG 1.1//EN" "http://www.w3.org/Graphics/SVG/1.1/DTD/svg11.dtd">
<svg xmlns="http://www.w3.org/2000/svg" xmlns:xlink="http://www.w3.org/1999/xlink" version="1.1" width="1080" height="1080" viewBox="0 0 1080 1080" xml:space="preserve">
<desc>Created with Fabric.js 5.2.4</desc>
<defs>
</defs>
<g transform="matrix(1 0 0 1 540 540)" id="2d831029-7c52-4772-85d0-2cc7e614e5d8"  >
</g>
<g transform="matrix(1 0 0 1 540 540)" id="d6168086-9d48-4895-8a10-8bb75ebf5a68"  >
<rect style="stroke: none; stroke-width: 1; stroke-dasharray: none; stroke-linecap: butt; stroke-dashoffset: 0; stroke-linejoin: miter; stroke-miterlimit: 4; fill: none; fill-rule: nonzero; opacity: 1;" vector-effect="non-scaling-stroke"  x="-540" y="-540" rx="0" ry="0" width="1080" height="1080" />
</g>
<g transform="matrix(1 0 0 1 540 540)" id="0144d3bb-29d6-41ee-baa8-d2712c2ef7a2"  >
<path style="stroke: rgb(0,0,0); stroke-width: 0; stroke-dasharray: none; stroke-linecap: butt; stroke-dashoffset: 0; stroke-linejoin: miter; stroke-miterlimit: 4; fill: rgb(251,150,56); fill-rule: nonzero; opacity: 1;" vector-effect="non-scaling-stroke"  transform=" translate(-320, -256)" d="M 320 104.5 C 491.4 104.5 623.2 176.7 623.2 256 C 623.2 335.3 491.3 407.5 320 407.5 C 148.6 407.5 16.80000000000001 335.3 16.80000000000001 256 C 16.80000000000001 176.7 148.7 104.5 320 104.5 M 320 87.7 C 143.3 87.7 0 163 0 256 C 0 349 143.3 424.3 320 424.3 C 496.7 424.3 640 349 640 256 C 640 163 496.7 87.7 320 87.7 z M 218.2 242.5 C 210.29999999999998 283 182.39999999999998 278.8 148.1 278.8 L 161.79999999999998 208.20000000000002 C 199.79999999999998 208.20000000000002 225.59999999999997 204.10000000000002 218.2 242.5 z M 97.4 350.3 L 134.10000000000002 350.3 L 142.8 305.5 C 183.9 305.5 209.4 308.5 233 286.4 C 259.1 262.4 265.9 219.7 247.3 198.29999999999998 C 237.60000000000002 187.1 222 181.6 200.8 181.6 L 130.10000000000002 181.6 L 97.4 350.3 z M 283.1 136.70000000000002 L 319.6 136.70000000000002 L 310.90000000000003 181.5 C 342.40000000000003 181.5 371.6 179.2 385.70000000000005 192.2 C 400.50000000000006 205.79999999999998 393.40000000000003 223.2 377.40000000000003 305.29999999999995 L 340.40000000000003 305.29999999999995 C 355.8 225.89999999999995 358.70000000000005 219.29999999999995 353.1 213.29999999999995 C 347.70000000000005 207.49999999999994 335.40000000000003 208.69999999999996 305.70000000000005 208.69999999999996 L 286.90000000000003 305.29999999999995 L 250.40000000000003 305.29999999999995 L 283.1 136.69999999999996 z M 505 242.5 C 497 283.6 468.3 278.8 434.9 278.8 L 448.59999999999997 208.20000000000002 C 486.79999999999995 208.20000000000002 512.4 204.10000000000002 504.99999999999994 242.5 z M 384.2 350.3 L 421 350.3 L 429.7 305.5 C 472.9 305.5 496.79999999999995 308 519.9 286.4 C 546 262.4 552.8 219.7 534.1999999999999 198.29999999999998 C 524.4999999999999 187.1 508.8999999999999 181.6 487.69999999999993 181.6 L 417 181.6 L 384.2 350.29999999999995 z" stroke-linecap="round" />
</g>
<g transform="matrix(NaN NaN NaN NaN 0 0)"  >
</g>
</svg>

<svg xmlns="http://www.w3.org/2000/svg" viewBox="0 0 640 512"><!--!Font Awesome Free 6.6.0 by @fontawesome - https://fontawesome.com License - https://fontawesome.com/license/free Copyright 2024 Fonticons, Inc.--><path d="M320 104.5c171.4 0 303.2 72.2 303.2 151.5S491.3 407.5 320 407.5c-171.4 0-303.2-72.2-303.2-151.5S148.7 104.5 320 104.5m0-16.8C143.3 87.7 0 163 0 256s143.3 168.3 320 168.3S640 349 640 256 496.7 87.7 320 87.7zM218.2 242.5c-7.9 40.5-35.8 36.3-70.1 36.3l13.7-70.6c38 0 63.8-4.1 56.4 34.3zM97.4 350.3h36.7l8.7-44.8c41.1 0 66.6 3 90.2-19.1 26.1-24 32.9-66.7 14.3-88.1-9.7-11.2-25.3-16.7-46.5-16.7h-70.7L97.4 350.3zm185.7-213.6h36.5l-8.7 44.8c31.5 0 60.7-2.3 74.8 10.7 14.8 13.6 7.7 31-8.3 113.1h-37c15.4-79.4 18.3-86 12.7-92-5.4-5.8-17.7-4.6-47.4-4.6l-18.8 96.6h-36.5l32.7-168.6zM505 242.5c-8 41.1-36.7 36.3-70.1 36.3l13.7-70.6c38.2 0 63.8-4.1 56.4 34.3zM384.2 350.3H421l8.7-44.8c43.2 0 67.1 2.5 90.2-19.1 26.1-24 32.9-66.7 14.3-88.1-9.7-11.2-25.3-16.7-46.5-16.7H417l-32.8 168.7z"/></svg>
